symbolic/32x32/mimetypes/application-x-php.svg

<svg xmlns="http://www.w3.org/2000/svg" width="32" height="32" version="1.1">
 <path style="opacity:0.2" d="M 6.375,3 C 5.61325,3 5,3.6244 5,4.4 V 29.6 C 5,30.37504 5.61325,31 6.375,31 h 19.25 C 26.3862,31 27,30.37504 27,29.6 V 12 L 20,10 18,3 Z"/>
 <path style="fill:#8561c1" d="M 6.375,2 C 5.61325,2 5,2.6244 5,3.4 V 28.6 C 5,29.37504 5.61325,30 6.375,30 h 19.25 C 26.3862,30 27,29.37504 27,28.6 V 11 L 20,9 18,2 Z"/>
 <path style="opacity:0.2" d="M 27,12 18,3 v 7.59375 C 18,11.373375 18.62775,12 19.40625,12 Z"/>
 <path style="fill:#ad81f2" d="M 27,11 18,2 V 9.59375 C 18,10.373375 18.62775,11 19.40625,11 Z"/>
 <path style="opacity:0.2;fill:#ffffff" d="M 6.375,2 C 5.61325,2 5,2.6247906 5,3.4003906 v 1 C 5,3.6247906 5.61325,3 6.375,3 H 18 V 2 Z"/>
 <path style="opacity:0.2" d="m 15,17 -5,4.5 5,4.5 V 24 L 12.5,21.5 15,19 Z m 2.666016,0 C 17.298016,17 17,17.477703 17,17.845703 v 1.332031 c -0.013,0.901 1.513,0.901 1.5,0 V 18.5 h 1 v 2.320312 l -1.650391,1.136719 c -0.18,0.119 -0.342609,0.318203 -0.349609,0.533203 v 0.833985 c -0.013,0.902 1.513,0.902 1.5,0 v -0.476563 l 1.703125,-1.136718 C 20.882125,21.591938 20.993,21.392734 21,21.177734 V 17.845703 C 21,17.477703 20.701984,17 20.333984,17 Z M 18.25,24.5 A 0.75,0.75 0 0 0 17.5,25.25 0.75,0.75 0 0 0 18.25,26 0.75,0.75 0 0 0 19,25.25 0.75,0.75 0 0 0 18.25,24.5 Z"/>
 <path style="fill:#ffffff" d="m 15,16 -5,4.5 5,4.5 V 23 L 12.5,20.5 15,18 Z m 2.666016,0 C 17.298016,16 17,16.477703 17,16.845703 v 1.332031 c -0.013,0.901 1.513,0.901 1.5,0 V 17.5 h 1 v 2.320312 l -1.650391,1.136719 c -0.18,0.119 -0.342609,0.318203 -0.349609,0.533203 v 0.833985 c -0.013,0.902 1.513,0.902 1.5,0 v -0.476563 l 1.703125,-1.136718 C 20.882125,20.591938 20.993,20.392734 21,20.177734 V 16.845703 C 21,16.477703 20.701984,16 20.333984,16 Z M 18.25,23.5 A 0.75,0.75 0 0 0 17.5,24.25 0.75,0.75 0 0 0 18.25,25 0.75,0.75 0 0 0 19,24.25 0.75,0.75 0 0 0 18.25,23.5 Z"/>
</svg>

<svg xmlns="http://www.w3.org/2000/svg" width="32" height="32"><path style="opacity:.2" d="M6.375 3C5.613 3 5 3.624 5 4.4v25.2c0 .775.613 1.4 1.375 1.4h19.25c.761 0 1.375-.625 1.375-1.4V12l-7-2-2-7z"/><path style="fill:#8561c1" d="M6.375 2C5.613 2 5 2.624 5 3.4v25.2c0 .775.613 1.4 1.375 1.4h19.25c.761 0 1.375-.625 1.375-1.4V11l-7-2-2-7z"/><path style="opacity:.2" d="m27 12-9-9v7.594c0 .78.628 1.406 1.406 1.406z"/><path style="fill:#ad81f2" d="m27 11-9-9v7.594c0 .78.628 1.406 1.406 1.406z"/><path style="opacity:.2;fill:#fff" d="M6.375 2C5.613 2 5 2.625 5 3.4v1C5 3.625 5.613 3 6.375 3H18V2z"/><path style="opacity:.2" d="m15 17-5 4.5 5 4.5v-2l-2.5-2.5L15 19zm2.666 0c-.368 0-.666.478-.666.846v1.332c-.013.9 1.513.9 1.5 0V18.5h1v2.32l-1.65 1.137c-.18.119-.343.318-.35.533v.834c-.013.902 1.513.902 1.5 0v-.476l1.703-1.137a.667.667 0 0 0 .297-.533v-3.332c0-.368-.298-.846-.666-.846zm.584 7.5a.75.75 0 0 0-.75.75.75.75 0 0 0 .75.75.75.75 0 0 0 .75-.75.75.75 0 0 0-.75-.75z"/><path style="fill:#fff" d="m15 16-5 4.5 5 4.5v-2l-2.5-2.5L15 18zm2.666 0c-.368 0-.666.478-.666.846v1.332c-.013.9 1.513.9 1.5 0V17.5h1v2.32l-1.65 1.137c-.18.119-.343.318-.35.533v.834c-.013.902 1.513.902 1.5 0v-.476l1.703-1.137a.667.667 0 0 0 .297-.533v-3.332c0-.368-.298-.846-.666-.846zm.584 7.5a.75.75 0 0 0-.75.75.75.75 0 0 0 .75.75.75.75 0 0 0 .75-.75.75.75 0 0 0-.75-.75z"/></svg>
